X: 209
T: Prelude no. 4	 Op. 28
C: Fryderyk Chopin
%%abc-version 2.0
%%abcx-abcm2ps-target-version 5.9.1 (29 Sep 2008)
%%abc-creator hum2abc beta
%%abcx-conversion-date 2021/10/03 11:24:02
%%abc-edited-by Mateusz Mrugas
%%abc-edited-by Jędrzej Mróz
%%abc-edited-by Jędrzej Mróz
%%abcx-initial-encoding-date 2019-04-25
%%humdrum-veritas 239775183
%%humdrum-veritas-data 1304295098
%%linebreak <none>
%%barnumbers 0
L: 1/8
M: C|
N: Derived from 028_1-12-1a-C-004.krn
P: 24 | PRÉLUDES | POUR | le Piano
Q: "Largo." 1/4=63
%%staves {1 2}
V: 1 clef=treble
V: 2 clef=bass
K: G
[V:1] B,3/B/ [I:setbarnb 1]| 
[V:2] z2 | 
[V:1] B6c2 | 
[V:2] [EB,G,][EB,G,][EB,G,][EB,G,] [EB,G,][EB,G,][EB,G,][EB,G,] | 
[V:1] B6c2 | 
[V:2] [EA,F,][EA,F,][EA,F,][EA,F,] [_EA,F,][EA,F,][EA,F,][EA,F,] | 
[V:1] B6c2 | 
[V:2] [_EA,=F,][EA,F,][EA,F,][EA,F,] [DA,F,][DA,F,][D^G,F,][DG,F,] | 
[V:1] B6_B2 | 
[V:2] [D^G,E,][DG,E,][DG,E,][DG,E,] [D=G,E,][DG,E,][^CG,E,][CG,E,] | 
[V:1] A6=B2 | 
[V:2] [=CG,E,][CG,E,][CG,E,][CG,E,] [CF,E,][CF,E,][CF,E,][CF,E,] | 
[V:1] A6B2 | 
[V:2] [CF,E,][CF,E,][CF,E,][CF,E,] [CF,^D,][CF,D,][CF,D,][CF,D,] | 
[V:1] A6B3/A/ | 
[V:2] [CF,=D,][CF,D,][CF,D,][CF,D,] [CF,D,][CF,D,][CF,D,][CF,D,] | 
[V:1] A6^G2- | 
[V:2] [C=F,D,][CF,D,][CF,D,][CF,D,] [B,F,D,][B,F,D,][B,F,D,][B,F,D,] | 
[V:1] G2AB dcEA | 
[V:2] [B,E,C,][B,E,C,][A,E,C,][A,E,C,] [A,E,C,][A,E,C,][A,E,C,][A,E,C,] | 
[V:1] F6A2 | 
[V:2] [A,E,B,,][A,E,B,,][A,^D,B,,][A,D,B,,] [A,E,C,][A,E,C,][A,E,C,][A,E,C,] | 
[V:1] F6{/B}A2 | 
[V:2] [A,^D,B,,][A,D,B,,][A,D,B,,][A,D,B,,] [A,E,C,][A,E,C,][A,E,C,][A,E,C,] | 
[V:1] GF!accent!CB, ^DF(3=dcB | 
[V:2] [A,2^D,2B,,2]z2z4 | 
[V:1] B6c2 | 
[V:2] [EB,G,][EB,G,][EB,G,][EB,G,] [EB,G,][EB,G,][EB,G,][EB,G,] | 
[V:1] B6c2 | 
[V:2] [EA,F,][EA,F,][EA,F,][EA,F,] [_EA,=F,][EA,F,][EA,F,][EA,F,] | 
[V:1] B6c2 | 
[V:2] [_E_A,=F,][EA,F,][DA,F,][DA,F,] [D^G,=E,][DG,E,][DG,E,][DG,E,] | 
[V:1] B>^A!mordent!A2g2f3/e/ | 
[V:2] [D=G,E,][DG,E,][^CG,E,][CG,E,] [^A,E,^C,][A,E,C,][=A,E,=C,][A,E,C,] | 
[V:1] e^dc'd degB | 
[V:2] [B,,B,,,][AFCA,][AFCA,][AFCA,] [F^DB,G,][EB,G,][EB,G,][EB,G,] | 
[V:1] dc(3eEAF3A | 
[V:2] [ECA,][ECA,] A,,[CF,E,] [B,E,B,,][B,E,B,,][A,E,C,][A,E,C,] | 
[V:1] F6{/B}A2 | 
[V:2] [B,E,B,,][B,E,B,,][B,E,B,,][B,E,B,,] [A,E,C,][A,E,C,][A,E,C,][A,E,C,] | 
[V:1] F6-F3/E/ | 
[V:2] [B,E,B,,][B,E,B,,][B,E,B,,][B,E,B,,] [B,^D,B,,][B,D,B,,][A,D,B,,][A,D,B,,] | 
[V:1] E6F2 | 
[V:2] [G,C,][G,C,][G,C,][G,C,] [_B,C,][B,C,][A,E,C,][A,E,C,] | 
[V:1] E6F2 | 
[V:2] [A,E,B,,][A,E,B,,][^G,E,B,,][G,E,B,,] [=G,E,B,,][G,E,B,,][G,E,B,,][G,E,B,,] | 
[V:1] E4!fermata!z4 | 
[V:2] [G,4C,4_B,,4]!fermata!z4 | 
[V:1] [E4B,4F,4E,4][^D4B,4F,4^D,4] | 
[V:2] [=B,,4B,,,4][B,,4F,,4B,,,4] | 
[V:1] !fermata![E8B,8G,8E,8] |]  
[V:2] !fermata![E,,8E,,,8] |]
